X:528
T: Hongjun nanxia shenglige
N: C1946
O: China,Henan Xinxian
S: IV, 128]
R: Xiaodiao]
M: 2/4
L: 1/16
K: Bb
g3fd2cd | f6g2 | b2g2d4 | c8 |
c4d2f2 | d2c2b4 | b4e2g2 | f8 |
c2dcb4 | c2dcb4 | d3fg2b2 | f2g2f2z2 |
d2c2z4 | d3fg2b2 | g2f4c2 | d2f2d2c2 | B8 |
d3fg2b2 | f2g2f2d2 | d2c2z4 |
d3fg2b2 | g2f4c2 | d2f2d2c2 | B8

@@@ Tune index: 7083
